X:1
T:James Gibb editions
T:Bella che tieni - Antonelli da Rimini
%%score [ 1 2 3 ]
L:1/8
Q:1/4=90
M:2/2
K:G
V:1 treble-8 nm="Tenor I" snm="T I"
V:2 treble-8 nm="Tenor II" snm="T II"
V:3 bass nm="Bass" snm="B"
V:1
"^Bella che tieni""^Cornelio Antonelli da Rimini\n(C16th )" z4 B4 | d6 d2 | e2 e2 d4 | B2 c4 (B2 | %4
w: Bel-|la che|tie- ni li|ca- pi- gli|
w: ||||
w: Se|ve- der-|ne sen- tir|non ti pos\-|
 A4) B4 ::[M:2/2][K:treble-8] z4 c4- | c4 d4 | B2 A4 B2 | G6 B2 | A4 A4 | B4 d4 | e6 d2 | %12
w: d'o- ro|Ch'il|* tuo|bel no- me|di- re|non si|può *||
w: ||||||* Mes-|chi- no|
w: * so|Scon\-|* ten-|to des- pe-|ra- to|mo- ri-|rò *||
 c2 c2 B4 | z2 B2 c2 d2 | e2 e2 d4 |[M:2/2][K:treble-8] e4 z2 d2 | d2 B2 c2 d2 | e4 d2 c2- | %18
w: |bi- so- gna-|rà * *|re Ch'il|non ve- der- ti|non si può|
w: che fa- rò||* mo- ri-||||
w: |mi con- ver-|rà * *||||
 c2 B2 d4 | B8 :| %20
w: * sof- fri-|re.|
w: ||
w: ||
V:2
 z4 G4 | B6 B2 | c2 c2 B4 | B2 A4 (B2 | F4) G4 ::[M:2/2][K:treble-8] z4 A4- | A4 B4 | G2 F4 G2 | %8
w: Bel-|la che|tie- ni li|ca- pi- gli|d'o- ro|Ch'il|* tuo|bel no- me|
w: ||||||||
w: Se|ve- der-|ne sen- tir|non ti pos\-|* so|Scon\-|* ten-|to des- pe-|
 E6 G2 | F4 F4 | G4 B4 | c6 G2 | A2 A2 ^G4 | z2 ^G2 A2 B2 | c2 c2 B4 | %15
w: di- re|non si|può *|||bi- so- gna-|rà * *|
w: ||* Mes-|chi- no|che fa- rò||* mo- ri-|
w: ra- to|mo- ri-|rò *|||mi con- ver-|rà * *|
[M:2/2][K:treble-8] c4 z2 B2 | B2 G2 A2 B2 | c4 B2 A2- | A2 G2 (A2 ^F2) | G8 :| %20
w: re Ch'il|non ve- der- ti|non si può|* sof- fri\- *|re.|
w: |||||
w: |||||
V:3
 z4 E,4 | G,6 G,2 | C,2 C,2 G,4 | G,2 =F,4 (G,2 | D,4) G,4 ::[M:2/2] z4 =F,4- | F,4 G,4 | %7
w: Bel-|la che|tie- ni li|ca- pi- gli|d'o- ro|Ch'il|* tuo|
w: |||||||
w: Se|ve- der-|ne sen- tir|non ti pos\-|* so|Scon\-|* ten-|
 G,,2 D,4 G,,2 | C,6 E,2 | D,4 D,4 | G,,4 G,4 | C,6 G,,2 | A,,2 A,,2 E,4 | z2 E,2 =F,2 G,2 | %14
w: bel no- me|di- re|non si|può *|||bi- so- gna-|
w: |||* Mes-|chi- no|che fa- rò||
w: to des- pe-|ra- to|mo- ri-|rò *|||mi con- ver-|
 C,2 C,2 G,4 |[M:2/2] C,4 z2 G,2 | G,2 E,2 =F,2 G,2 | C,4 G,2 =F,2- | F,2 E,2 D,4 | G,,8 :| %20
w: rà * *|re Ch'il|non ve- der- ti|non si può|* sof- fri-|re.|
w: * mo- ri-||||||
w: rà * *||||||

